!!!COM: Johannes Brahms
!!!CNT: Deutscher
!!!TXO: Deutsche
!!!OTL: Serenade
!!!OPS: Op. 58
!!!ONM: No. 8
!!!LYR: Schack
!!!ONB: Original key: a minor
!!!ENC: Ayako Kataoka        
!!!EED: Leigh VanHandel
!!!YOR: C.F. Peters, Brahms Lieder fu2r eine Singstimme mit Klavierbegleitung, Band III, ausgabe fu2r tiefere Stimme
!!!ODT: 1867/
!!NB: Vocal melody and text only encoded.
**kern	**silbe
*clefG2	*
*k[f#c#g#]	*
*M6/8	*
*MM[andantino]	*
!! tempo indication: grazioso
=3	=3
{4f#	{Lei-
8c#	-se,
(8a	um
8g#)	|
8f#	dich
=4	=4
4e	nicht
8g#	zu
4f#	we-
8e}	-cken,}
=5	=5
{(8d	{rauscht
8e)	|
8f#	der
4c#	Nacht-
8f#	-wind
=6	=6
(8a	teu-
8e#)	|
8f#	-re
4g#}	Frau!}
8r	.
=7	=7
{4b	{lei-
8f#	-se
(8dd	in
8cc#)	|
8b	das
=8	=8
4a	Mar-
8cc#	-mor-
4b	-be-
8a	-cken
=9	=9
(8gn	giesst
8a)	|
8b	der
4f#	Brun-
8b	-nen
=10	=10
[4.cc#	sei-
4cc#]	|
8e#	-nen
=11	=11
4f#}	Tau.}
8r	.
4r	.
8r	.
=15	=15
{4a	{Wie
8g#	das
4g#	Was-
8f#	-ser
=16	=16
4f#	nie-
8e	-der-
4e	-trop-
8c#	-fend
=17	=17
4a	Krei-
8g#	-se
4g#	ne-
8f#	-ben
=18	=18
4f#	Krei-
8e#	-se
4e#}	zieht,}
8r	.
=19	=19
{4cc#	{al-
8b#	-so
4b#	zit-
8a#	-tert
=20	=20
(8.cc#	lei-
16dd#)	|
(16b#	-se
16cc#)	|
(8.a#	klop-
16bn)	|
(16g#	-fend
16a#)	|
=21	=21
(8f#	mir
8e#)	|
8d#	das
(8f#	Herz,
8a#)	|
8dd#	das
=22	=22
4cc#	Herz
8g#	bei
4b#	die-
8g#	-sem
=23	=23
4cc#}	Lied.}
8r	.
4r	.
8r	.
=26	=26
{4a	{Schwingt
8f#	euch,
(8cc#	To2-
8b)	|
8a	-ne
=27	=27
4g#	mei-
(bq	-ner
8a)	|
4g#	Zi-
8f#	-ther,
=28	=28
(8e#	schwingt
8f#)	|
8g#	euch
4b	auf-
8a	-wa2rts,
=29	=29
4g#	flu2-
8f#	-gel-
4g#}	-leicht;}
8r	.
=30	=30
{4b	{durch
8f#	das
(8dd	reb-
8cc#)	|
8b	-um-
=31	=31
4a	kra2nz-
8cc#	-te
4b	Git-
8a	-ter
=32	=32
(8gn	in
8a)	|
8b	der
4f#	Scho2-
8b	-nen
=33	=33
[4.cc#	Kam-
4cc#]	|
8e#	-mer
=34	=34
4f#}	schleicht.}
8r	.
4r	.
8r	.
=37	=37
4r	.
8r	.
{4f#	{Ist
8f#	denn,
=38	=38
*k[f#c#]	*
*M9/8	*
[4.a	lieb-
4a]	|
8a	-li-
(aq	-che
cc#q	|
4b)	|
8a	Do-
=39	=39
4.a	-lo-
4f#}	-res,}
8r	.
{4dd	{al-
8cc#	-so
=40	=40
4b	singt
8a	in
([4.g	ih-
8g]	|
8b)	|
8g	-ren
=41	=41
4a}	Traum}
8r	.
4r	.
8r	.
{4f#	{in
8f#	der
=42	=42
[4.a	Mu-
4a]	|
8a	-schel
(aq	dei-
cc#q	|
4b)	|
8a	-nes
=43	=43
4.a	Oh-
4f#}	-res}
8r	.
{4dd	{fu2r
8cc#	kein
=44	=44
4b	Per-
8a	-len-
([4.g#	-wo2rt-
8g#]	|
8b)	|
8g#	-chen
=45	=45
4a}	Raum,}
8r	.
{4cc#	{fu2r
8b	kein
4a	Per-
8g#	-len-
=46	=46
([4.f#	-wo2rt-
8f#]	|
8g#	|
8a	|
8dd	|
8a)	|
8f#	-chen
=47	=47
4a}	Raum?}
8r	.
4r	.
8r	.
4r	.
8r	.
=48	=48
4r	.
8r	.
4r	.
8r	.
{4f#	{O
8f#	den
=49	=49
[4.a	Freund-
4a]	|
8a	nur
(aq	ei-
cc#q	|
4b)	|
8a	-ne
=50	=50
4.a	Stun-
4f#}	-de,}
8r	.
{4dd	{wo
8cc#	dein
=51	=51
4b	Arm
8a	ihn
([4.g	heiss
8g]	|
8a)	|
8b	um-
=52	=52
4a}	-schlingt,}
8r	.
4r	.
8r	.
{4f#	{und
8f#	der
=53	=53
[4.a	Kuss
4a]	|
8a	von
(aq	dei-
cc#q	|
4b)	|
8a	-nem
=54	=54
4.a	Mun-
4f#}	-de}
8r	.
{4dd	{feu-
8dd	-rig
=55	=55
[(4.dd	bis
8dd]	|
8f#)	|
8g	ans
4dd	Herz
8ccn	ihm
=56	=56
4b}	dringt,}
8r	.
4r	.
8r	.
{4ee	{feu-
8b	-rig
=57	=57
([4.a	bis
8a]	|
8dd)	|
8ee	ans
4cc#	Herz
8b	ihm
=58	=58
4a}	dringt,}
8r	.
4r	.
8r	.
{4ee	{feu-
8b	-rig
=59	=59
([4.dd	bis
8dd]	|
8a)	|
8f#	ans
4a	Herz
8c#	ihm
=60	=60
4d}	dringt.}
8r	.
4r	.
8r	.
4r	.
8r	.
=64	=64
*k[f#c#g#]	*
*M6/8	*
{4f#	{Hast
8c#	du
(8a	ihn
8g#)	|
8f#	so
=65	=65
4e	ganz
8g#	ver-
4f#	-ges-
8e	-sen?
=66	=66
(8d	ein-
8e)	|
8f#	-sam
4c#	harrt
8f#	er
=67	=67
(8a	am
8e#)	|
8f#	Bal-
4g#}	-kon,}
8r	.
=68	=68
{4b	{u2-
8f#	-berm
(8dd	Wip-
8cc#)	|
8b	-fel
=69	=69
4a	der
8cc#	Zy-
4b	-pres-
8a	-sen
=70	=70
(8gn	bleicht
8a)	|
8b	des
4f#	Mon-
8b	-des
=71	=71
[4.cc#	Si-
4cc#]	|
8e#	-chel
=72	=72
4f#}	schon.}
8r	.
4r	.
8r	.
=75	=75
{4b	{Wie
8a	das
4a	Was-
8gn	-ser
=76	=76
4gn	nie-
8f#	-der-
4f#	-trop-
8a	-fend
=77	=77
4dd	Krei-
8cc#	-se
4cc#	ne-
8b	-ben
=78	=78
4b	Krei-
8a#	-se
4a#}	zieht,}
8r	.
=79	=79
{4dd#	{al-
8a#	-so
4a#	zit-
8f#	-tert
=80	=80
(8.dd#	lei-
16cc##)	|
(16dd#	-se
16a#)	|
(8.a#	klop-
16g#)	|
(16a#	-fend
16f#)	|
=81	=81
4f#	ihm
8dn	das
(8dd	Herz,
8cc#)	|
8b	das
=82	=82
4a	Herz
8f#	bei
4cc#	die-
8g#	-sem
=83	=83
4a}	Lied,}
8r	.
{([4.dd	{ihm
=84	=84
8dd]	|
8gn)	|
8dd	das
(8b	Herz
8gn)	|
8dd	bei
=85	=85
[4.cc#	die-
4cc#]	|
8e#	-sem
=86	=86
4f#}	Lied.}
8r	.
4r	.
8r	.
*-	*-
